(STEP5)
(T11  D=5. CR=0. - ZMIN=17. - FLAT END MILL)
G21
G40
G49
G80
G90

(2D CONTOUR9)
M5
T11 M6
S5000 M3
G54
G0 B0. C0.
G17
G0 X1.072 Y1.676 Z51.97
Z41.97
G94 G1 Z37.97 F333.
Z17.5
X1.079 Y1.677 Z17.413 F1000.
X1.101 Y1.681 Z17.329
X1.138 Y1.688 Z17.25
X1.187 Y1.696 Z17.179
X1.248 Y1.707 Z17.117
X1.318 Y1.72 Z17.067
X1.396 Y1.733 Z17.03
X1.479 Y1.748 Z17.008
X1.564 Y1.763 Z17.
X2.056 Y1.85
G3 X2.462 Y2.429 R0.5
X-0.434 Y4.457 R2.5
X-2.462 Y1.561 R2.5
X0.434 Y-0.467 R2.5
X2.462 Y2.429 R2.5
X2.256 Y2.752 R0.5
X1.883 Y2.835 R0.5
G1 X1.39 Y2.748
X1.305 Y2.733 Z17.008
X1.222 Y2.718 Z17.03
X1.144 Y2.704 Z17.067
X1.074 Y2.692 Z17.117
X1.013 Y2.681 Z17.179
X0.964 Y2.673 Z17.25
X0.928 Y2.666 Z17.329
X0.905 Y2.662 Z17.413
X0.898 Y2.661 Z17.5
G0 Z41.97
X-8.368 Y16.117
G1 Z37.97 F333.
Z17.5
X-8.366 Y16.11 Z17.413 F1000.
X-8.358 Y16.089 Z17.329
X-8.346 Y16.054 Z17.25
X-8.33 Y16.007 Z17.179
X-8.31 Y15.948 Z17.117
X-8.286 Y15.881 Z17.067
X-8.26 Y15.806 Z17.03
X-8.232 Y15.727 Z17.008
X-8.204 Y15.645 Z17.
X-8.039 Y15.173
G3 X-7.785 Y14.887 R0.5
X-7.403 Y14.865 R0.5
G2 X7.97 Y14.659 R22.5
X26.779 Y-2.525 R34.5
G1 X26.797 Y-2.561
X27.206 Y-3.438
X27.237 Y-3.507
X27.625 Y-4.411
X27.653 Y-4.479
X28.014 Y-5.393
X28.041 Y-5.463
X28.368 Y-6.37
X28.388 Y-6.425
X28.537 Y-6.871
X28.549 Y-6.907
X28.688 Y-7.345
X28.699 Y-7.379
X28.828 Y-7.807
X28.838 Y-7.84
X28.958 Y-8.257
X28.967 Y-8.289
X29.078 Y-8.693
X29.086 Y-8.723
X29.187 Y-9.113
X29.195 Y-9.142
X29.288 Y-9.516
X29.295 Y-9.545
X29.378 Y-9.901
X29.385 Y-9.929
X29.46 Y-10.266
X29.466 Y-10.293
X29.534 Y-10.616
X29.539 Y-10.641
X29.601 Y-10.951
X29.606 Y-10.974
X29.662 Y-11.27
X29.667 Y-11.292
X29.717 Y-11.571
X29.721 Y-11.592
X29.766 Y-11.853
X29.769 Y-11.872
X29.809 Y-12.113
X29.812 Y-12.13
X29.847 Y-12.349
X29.849 Y-12.366
X29.879 Y-12.561
X29.881 Y-12.576
X29.906 Y-12.747
X29.907 Y-12.757
X29.928 Y-12.903
X29.929 Y-12.916
X29.946 Y-13.037
X29.947 Y-13.047
X29.96 Y-13.144
X29.962 Y-13.157
X29.971 Y-13.229
X29.972 Y-13.234
X29.977 Y-13.281
X29.981 Y-13.306
G2 X29.375 Y-15.272 R2.5
X27.5 Y-16.118 R2.5
G1 X-27.5
G2 X-29.375 Y-15.272 R2.5
X-29.981 Y-13.306 R2.5
G1 X-29.977 Y-13.281
X-29.972 Y-13.234
X-29.971 Y-13.229
X-29.962 Y-13.157
X-29.96 Y-13.144
X-29.947 Y-13.047
X-29.946 Y-13.037
X-29.929 Y-12.916
X-29.928 Y-12.903
X-29.907 Y-12.757
X-29.906 Y-12.747
X-29.881 Y-12.576
X-29.879 Y-12.561
X-29.849 Y-12.366
X-29.847 Y-12.349
X-29.812 Y-12.13
X-29.809 Y-12.113
X-29.769 Y-11.872
X-29.766 Y-11.853
X-29.721 Y-11.592
X-29.717 Y-11.571
X-29.667 Y-11.292
X-29.662 Y-11.27
X-29.606 Y-10.974
X-29.601 Y-10.951
X-29.539 Y-10.641
X-29.534 Y-10.616
X-29.466 Y-10.293
X-29.46 Y-10.266
X-29.385 Y-9.929
X-29.378 Y-9.901
X-29.295 Y-9.545
X-29.288 Y-9.516
X-29.195 Y-9.142
X-29.187 Y-9.113
X-29.086 Y-8.723
X-29.078 Y-8.693
X-28.967 Y-8.289
X-28.958 Y-8.257
X-28.838 Y-7.84
X-28.828 Y-7.807
X-28.699 Y-7.379
X-28.688 Y-7.345
X-28.549 Y-6.907
X-28.537 Y-6.871
X-28.388 Y-6.425
X-28.368 Y-6.37
X-28.041 Y-5.463
X-28.014 Y-5.393
X-27.653 Y-4.479
X-27.625 Y-4.411
X-27.237 Y-3.507
X-27.206 Y-3.438
X-26.797 Y-2.561
X-26.779 Y-2.525
G2 X-7.97 Y14.659 R34.5
X-7.403 Y14.865 R22.5
G3 X-7.117 Y15.12 R0.5
X-7.095 Y15.502 R0.5
G1 X-7.26 Y15.974
X-7.288 Y16.056 Z17.008
X-7.316 Y16.135 Z17.03
X-7.342 Y16.21 Z17.067
X-7.365 Y16.277 Z17.117
X-7.386 Y16.336 Z17.179
X-7.402 Y16.383 Z17.25
X-7.414 Y16.418 Z17.329
X-7.422 Y16.439 Z17.413
X-7.424 Y16.446 Z17.5
G0 Z51.97

M5
M30
