(step 1)
(T8 D=14 CR=0 - ZMIN=-31 - flat end mill)
N10 G90
N15 G17
N20 G21
(-Attention- Property Safe Retracts is set to Clearance Height.)
(Ensure the clearance height will clear the part and or fixtures.)
(Raise the Z-axis to a safe height before starting the program.)
(2D Contour7)
N25 T8 M6
N30 S5000 M3
N35 G17 G90
N40 M8
N45 G0 X-1.4 Y28.685
N50 Z15
N55 G0 Z5
N60 G1 Z1 F333.3
N65 Z-29.6
N70 Y28.677 F1000
N75 Z-29.746 F1000
N80 Y28.654
N85 Z-29.891
N90 Y28.616
N95 Z-30.033
N100 Y28.564
N105 Z-30.169
N110 Y28.497
N115 Z-30.3
N120 Y28.418
N125 Z-30.423
N130 Y28.325
N135 Z-30.537
N140 Y28.222
N145 Z-30.64
N150 Y28.108
N155 Z-30.733
N160 Y27.985
N165 Z-30.812
N170 Y27.854
N175 Z-30.879
N180 Y27.718
N185 Z-30.931
N190 Y27.576
N195 Z-30.969
N200 Y27.431
N205 Z-30.992
N210 Y27.285
N215 Z-31
N220 Y25.885
N225 G17 G3 X0 Y24.485 I1.4 J0
N230 G1 X3.618
N235 X3.78 Y24.483
N240 X4.22 Y24.473
N245 G2 X4.54 Y24.458 I-0.162 J-6.998
N250 G1 X4.99 Y24.427
N255 G2 X5.305 Y24.398 I-0.481 J-6.983
N260 G1 X5.762 Y24.346
N265 G2 X6.077 Y24.303 I-0.797 J-6.955
N270 G1 X6.538 Y24.228
N275 G2 X6.851 Y24.171 I-1.112 J-6.911
N280 G1 X7.315 Y24.074
N285 G2 X7.632 Y24.001 I-1.425 J-6.853
N290 G1 X8.096 Y23.882
N295 G2 X8.418 Y23.79 I-1.742 J-6.78
N300 G1 X8.88 Y23.648
N305 G2 X9.207 Y23.538 I-2.064 J-6.689
N310 G1 X9.665 Y23.371
N315 G2 X9.995 Y23.242 I-2.392 J-6.579
N320 G1 X10.447 Y23.051
N325 G2 X10.771 Y22.905 I-2.721 J-6.449
N330 G1 X11.215 Y22.69
N335 G2 X11.522 Y22.532 I-3.046 J-6.303
N340 G1 X11.955 Y22.296
N345 G2 X12.249 Y22.126 I-3.353 J-6.145
N350 G1 X12.671 Y21.869
N355 G2 X12.953 Y21.687 I-3.647 J-5.975
N360 G1 X13.361 Y21.411
N365 G2 X13.633 Y21.216 I-3.929 J-5.794
N370 G1 X14.026 Y20.922
N375 G2 X14.291 Y20.713 I-4.201 J-5.599
N380 G1 X14.667 Y20.401
N385 G2 X14.924 Y20.177 I-4.466 J-5.39
N390 G1 X15.281 Y19.851
N395 G2 X15.536 Y19.606 I-4.723 J-5.166
N400 G1 X15.873 Y19.264
N405 G2 X16.113 Y19.009 I-4.978 J-4.921
N410 G1 X16.438 Y18.646
N415 G2 X16.662 Y18.383 I-5.218 J-4.666
N420 G1 X16.973 Y17.998
N425 G2 X17.182 Y17.727 I-5.442 J-4.403
N430 G1 X17.477 Y17.323
N435 G2 X17.671 Y17.043 I-5.651 J-4.131
N440 G1 X17.949 Y16.621
N445 G2 X18.133 Y16.326 I-5.845 J-3.851
N450 G1 X18.392 Y15.888
N455 G2 X18.563 Y15.581 I-6.029 J-3.556
N460 G1 X18.8 Y15.128
N465 G2 X18.96 Y14.803 I-6.2 J-3.249
N470 G1 X19.174 Y14.337
N475 G2 X19.321 Y13.994 I-6.36 J-2.923
N480 G1 X19.51 Y13.517
N485 G2 X19.636 Y13.172 I-6.507 J-2.58
N490 G1 X19.8 Y12.686
N495 G2 X19.906 Y12.342 I-6.634 J-2.235
N500 G1 X20.044 Y11.85
N505 G2 X20.13 Y11.512 I-6.74 J-1.891
N510 G1 X20.243 Y11.016
N515 G2 X20.312 Y10.676 I-6.825 J-1.554
N520 G1 X20.399 Y10.178
N525 G2 X20.451 Y9.837 I-6.894 J-1.214
N530 G1 X20.513 Y9.34
N535 G2 X20.548 Y8.997 I-6.945 J-0.873
N540 G1 X20.585 Y8.503
N545 G2 X20.603 Y8.151 I-6.98 J-0.53
N550 G1 X20.615 Y7.663
N555 X20.618 Y7.485
N560 Y-7.485
N565 X20.615 Y-7.663
N570 X20.603 Y-8.151
N575 G2 X20.585 Y-8.503 I-6.998 J0.178
N580 G1 X20.548 Y-8.997
N585 G2 X20.513 Y-9.34 I-6.98 J0.53
N590 G1 X20.451 Y-9.837
N595 G2 X20.399 Y-10.178 I-6.945 J0.873
N600 G1 X20.312 Y-10.676
N605 G2 X20.243 Y-11.016 I-6.894 J1.214
N610 G1 X20.13 Y-11.512
N615 G2 X20.044 Y-11.85 I-6.825 J1.554
N620 G1 X19.906 Y-12.342
N625 G2 X19.8 Y-12.686 I-6.74 J1.891
N630 G1 X19.636 Y-13.172
N635 G2 X19.51 Y-13.517 I-6.634 J2.235
N640 G1 X19.321 Y-13.994
N645 G2 X19.174 Y-14.337 I-6.507 J2.58
N650 G1 X18.96 Y-14.803
N655 G2 X18.8 Y-15.128 I-6.36 J2.923
N660 G1 X18.563 Y-15.581
N665 G2 X18.392 Y-15.888 I-6.2 J3.249
N670 G1 X18.133 Y-16.326
N675 G2 X17.949 Y-16.621 I-6.029 J3.556
N680 G1 X17.671 Y-17.043
N685 G2 X17.477 Y-17.323 I-5.845 J3.851
N690 G1 X17.182 Y-17.727
N695 G2 X16.973 Y-17.998 I-5.651 J4.131
N700 G1 X16.662 Y-18.383
N705 G2 X16.438 Y-18.646 I-5.442 J4.403
N710 G1 X16.113 Y-19.009
N715 G2 X15.873 Y-19.264 I-5.218 J4.666
N720 G1 X15.536 Y-19.606
N725 G2 X15.281 Y-19.851 I-4.978 J4.921
N730 G1 X14.924 Y-20.177
N735 G2 X14.667 Y-20.401 I-4.723 J5.166
N740 G1 X14.291 Y-20.713
N745 G2 X14.026 Y-20.922 I-4.466 J5.39
N750 G1 X13.633 Y-21.216
N755 G2 X13.361 Y-21.411 I-4.201 J5.599
N760 G1 X12.953 Y-21.687
N765 G2 X12.671 Y-21.869 I-3.929 J5.794
N770 G1 X12.249 Y-22.126
N775 G2 X11.955 Y-22.296 I-3.647 J5.975
N780 G1 X11.522 Y-22.532
N785 G2 X11.215 Y-22.69 I-3.353 J6.145
N790 G1 X10.771 Y-22.905
N795 G2 X10.447 Y-23.051 I-3.046 J6.303
N800 G1 X9.995 Y-23.242
N805 G2 X9.665 Y-23.371 I-2.721 J6.449
N810 G1 X9.207 Y-23.538
N815 G2 X8.88 Y-23.648 I-2.392 J6.579
N820 G1 X8.418 Y-23.79
N825 G2 X8.096 Y-23.882 I-2.064 J6.689
N830 G1 X7.632 Y-24.001
N835 G2 X7.315 Y-24.074 I-1.742 J6.78
N840 G1 X6.851 Y-24.171
N845 G2 X6.538 Y-24.228 I-1.425 J6.853
N850 G1 X6.077 Y-24.303
N855 G2 X5.762 Y-24.346 I-1.112 J6.911
N860 G1 X5.305 Y-24.398
N865 G2 X4.99 Y-24.427 I-0.797 J6.955
N870 G1 X4.54 Y-24.458
N875 G2 X4.22 Y-24.473 I-0.481 J6.983
N880 G1 X3.78 Y-24.483
N885 X3.618 Y-24.485
N890 X-12.321
N895 X-13.618
N900 G2 X-20.618 Y-17.485 I0 J7
N905 G1 Y-10.485
N910 G2 X-13.618 Y-3.485 I7 J0
N915 G1 X-0.382
N920 Y3.485
N925 X-12.321
N930 X-13.618
N935 G2 X-20.618 Y10.485 I0 J7
N940 G1 Y17.485
N945 G2 X-13.618 Y24.485 I7 J0
N950 G1 X0
N955 G3 X1.4 Y25.885 I0 J1.4
N960 G1 Y27.285
N965 Y27.431
N970 Z-30.992
N975 Y27.576
N980 Z-30.969
N985 Y27.718
N990 Z-30.931
N995 Y27.854
N1000 Z-30.879
N1005 Y27.985
N1010 Z-30.812
N1015 Y28.108
N1020 Z-30.733
N1025 Y28.222
N1030 Z-30.64
N1035 Y28.325
N1040 Z-30.537
N1045 Y28.418
N1050 Z-30.423
N1055 Y28.497
N1060 Z-30.3
N1065 Y28.564
N1070 Z-30.169
N1075 Y28.616
N1080 Z-30.033
N1085 Y28.654
N1090 Z-29.891
N1095 Y28.677
N1100 Z-29.746
N1105 Y28.685
N1110 Z-29.6
N1115 G0 Z15
N1120 M9
N1125 M2
