(step2)
(T8 D=14 CR=0 - ZMIN=30 - flat end mill)
N10 G90
N15 G17
N20 G21
(-Attention- Property Safe Retracts is set to Clearance Height.)
(Ensure the clearance height will clear the part and or fixtures.)
(Raise the Z-axis to a safe height before starting the program.)
(2D Contour8)
N25 T8 M6
N30 S5000 M3
N35 G17 G90
N40 M8
N45 G0 X15.018 Y-0.715
N50 Z71
N55 G0 Z61
N60 G1 Z57 F333.3
N65 Z31.4
N70 Y-0.707 F1000
N75 Z31.254 F1000
N80 Y-0.684
N85 Z31.109
N90 Y-0.646
N95 Z30.967
N100 Y-0.594
N105 Z30.831
N110 Y-0.527
N115 Z30.7
N120 Y-0.448
N125 Z30.577
N130 Y-0.355
N135 Z30.463
N140 Y-0.252
N145 Z30.36
N150 Y-0.138
N155 Z30.267
N160 Y-0.015
N165 Z30.188
N170 Y0.116
N175 Z30.121
N180 Y0.252
N185 Z30.069
N190 Y0.394
N195 Z30.031
N200 Y0.539
N205 Z30.008
N210 Y0.685
N215 Z30
N220 Y2.085
N225 G17 G3 X13.618 Y3.485 I-1.4 J0
N230 G1 X0.382
N235 Y-3.485
N240 X12.321
N245 X13.618
N250 G2 X20.618 Y-10.485 I0 J-7
N255 G1 Y-17.485
N260 G2 X13.618 Y-24.485 I-7 J0
N265 G1 X-3.618
N270 X-3.78 Y-24.483
N275 X-4.22 Y-24.473
N280 G2 X-4.54 Y-24.458 I0.162 J6.998
N285 G1 X-4.99 Y-24.427
N290 G2 X-5.305 Y-24.398 I0.481 J6.983
N295 G1 X-5.762 Y-24.346
N300 G2 X-6.077 Y-24.303 I0.797 J6.955
N305 G1 X-6.538 Y-24.228
N310 G2 X-6.851 Y-24.171 I1.112 J6.911
N315 G1 X-7.315 Y-24.074
N320 G2 X-7.632 Y-24.001 I1.425 J6.853
N325 G1 X-8.096 Y-23.882
N330 G2 X-8.418 Y-23.79 I1.742 J6.78
N335 G1 X-8.88 Y-23.648
N340 G2 X-9.207 Y-23.538 I2.064 J6.689
N345 G1 X-9.665 Y-23.371
N350 G2 X-9.995 Y-23.242 I2.392 J6.579
N355 G1 X-10.447 Y-23.051
N360 G2 X-10.771 Y-22.905 I2.721 J6.449
N365 G1 X-11.215 Y-22.69
N370 G2 X-11.522 Y-22.532 I3.046 J6.303
N375 G1 X-11.955 Y-22.296
N380 G2 X-12.249 Y-22.126 I3.353 J6.145
N385 G1 X-12.671 Y-21.869
N390 G2 X-12.953 Y-21.687 I3.647 J5.975
N395 G1 X-13.361 Y-21.411
N400 G2 X-13.633 Y-21.216 I3.929 J5.794
N405 G1 X-14.026 Y-20.922
N410 G2 X-14.291 Y-20.713 I4.201 J5.599
N415 G1 X-14.667 Y-20.401
N420 G2 X-14.924 Y-20.177 I4.466 J5.39
N425 G1 X-15.281 Y-19.851
N430 G2 X-15.536 Y-19.606 I4.723 J5.166
N435 G1 X-15.873 Y-19.264
N440 G2 X-16.113 Y-19.009 I4.978 J4.921
N445 G1 X-16.438 Y-18.646
N450 G2 X-16.662 Y-18.383 I5.218 J4.666
N455 G1 X-16.973 Y-17.998
N460 G2 X-17.182 Y-17.727 I5.442 J4.403
N465 G1 X-17.477 Y-17.323
N470 G2 X-17.671 Y-17.043 I5.651 J4.131
N475 G1 X-17.949 Y-16.621
N480 G2 X-18.133 Y-16.326 I5.845 J3.851
N485 G1 X-18.392 Y-15.888
N490 G2 X-18.563 Y-15.581 I6.029 J3.556
N495 G1 X-18.8 Y-15.128
N500 G2 X-18.96 Y-14.803 I6.2 J3.249
N505 G1 X-19.174 Y-14.337
N510 G2 X-19.321 Y-13.994 I6.36 J2.923
N515 G1 X-19.51 Y-13.517
N520 G2 X-19.636 Y-13.172 I6.507 J2.58
N525 G1 X-19.8 Y-12.686
N530 G2 X-19.906 Y-12.342 I6.634 J2.235
N535 G1 X-20.044 Y-11.85
N540 G2 X-20.13 Y-11.512 I6.74 J1.891
N545 G1 X-20.243 Y-11.016
N550 G2 X-20.312 Y-10.676 I6.825 J1.554
N555 G1 X-20.399 Y-10.178
N560 G2 X-20.451 Y-9.837 I6.894 J1.214
N565 G1 X-20.513 Y-9.34
N570 G2 X-20.548 Y-8.997 I6.945 J0.873
N575 G1 X-20.585 Y-8.503
N580 G2 X-20.603 Y-8.151 I6.98 J0.53
N585 G1 X-20.615 Y-7.663
N590 X-20.618 Y-7.485
N595 Y7.485
N600 X-20.615 Y7.663
N605 X-20.603 Y8.151
N610 G2 X-20.585 Y8.503 I6.998 J-0.178
N615 G1 X-20.548 Y8.997
N620 G2 X-20.513 Y9.34 I6.98 J-0.53
N625 G1 X-20.451 Y9.837
N630 G2 X-20.399 Y10.178 I6.945 J-0.873
N635 G1 X-20.312 Y10.676
N640 G2 X-20.243 Y11.016 I6.894 J-1.214
N645 G1 X-20.13 Y11.512
N650 G2 X-20.044 Y11.85 I6.825 J-1.554
N655 G1 X-19.906 Y12.342
N660 G2 X-19.8 Y12.686 I6.74 J-1.891
N665 G1 X-19.636 Y13.172
N670 G2 X-19.51 Y13.517 I6.634 J-2.235
N675 G1 X-19.321 Y13.994
N680 G2 X-19.174 Y14.337 I6.507 J-2.58
N685 G1 X-18.96 Y14.803
N690 G2 X-18.8 Y15.128 I6.36 J-2.923
N695 G1 X-18.563 Y15.581
N700 G2 X-18.392 Y15.888 I6.2 J-3.249
N705 G1 X-18.133 Y16.326
N710 G2 X-17.949 Y16.621 I6.029 J-3.556
N715 G1 X-17.671 Y17.043
N720 G2 X-17.477 Y17.323 I5.845 J-3.851
N725 G1 X-17.182 Y17.727
N730 G2 X-16.973 Y17.998 I5.651 J-4.131
N735 G1 X-16.662 Y18.383
N740 G2 X-16.438 Y18.646 I5.442 J-4.403
N745 G1 X-16.113 Y19.009
N750 G2 X-15.873 Y19.264 I5.218 J-4.666
N755 G1 X-15.536 Y19.606
N760 G2 X-15.281 Y19.851 I4.978 J-4.921
N765 G1 X-14.924 Y20.177
N770 G2 X-14.667 Y20.401 I4.723 J-5.166
N775 G1 X-14.291 Y20.713
N780 G2 X-14.026 Y20.922 I4.466 J-5.39
N785 G1 X-13.633 Y21.216
N790 G2 X-13.361 Y21.411 I4.201 J-5.599
N795 G1 X-12.953 Y21.687
N800 G2 X-12.671 Y21.869 I3.929 J-5.794
N805 G1 X-12.249 Y22.126
N810 G2 X-11.955 Y22.296 I3.647 J-5.975
N815 G1 X-11.522 Y22.532
N820 G2 X-11.215 Y22.69 I3.353 J-6.145
N825 G1 X-10.771 Y22.905
N830 G2 X-10.447 Y23.051 I3.046 J-6.303
N835 G1 X-9.995 Y23.242
N840 G2 X-9.665 Y23.371 I2.721 J-6.449
N845 G1 X-9.207 Y23.538
N850 G2 X-8.88 Y23.648 I2.392 J-6.579
N855 G1 X-8.418 Y23.79
N860 G2 X-8.096 Y23.882 I2.064 J-6.689
N865 G1 X-7.632 Y24.001
N870 G2 X-7.315 Y24.074 I1.742 J-6.78
N875 G1 X-6.851 Y24.171
N880 G2 X-6.538 Y24.228 I1.425 J-6.853
N885 G1 X-6.077 Y24.303
N890 G2 X-5.762 Y24.346 I1.112 J-6.911
N895 G1 X-5.305 Y24.398
N900 G2 X-4.99 Y24.427 I0.797 J-6.955
N905 G1 X-4.54 Y24.458
N910 G2 X-4.22 Y24.473 I0.481 J-6.983
N915 G1 X-3.78 Y24.483
N920 X-3.618 Y24.485
N925 X12.321
N930 X13.618
N935 G2 X20.618 Y17.485 I0 J-7
N940 G1 Y10.485
N945 G2 X13.618 Y3.485 I-7 J0
N950 G3 X12.218 Y2.085 I0 J-1.4
N955 G1 Y0.685
N960 Y0.539
N965 Z30.008
N970 Y0.394
N975 Z30.031
N980 Y0.252
N985 Z30.069
N990 Y0.116
N995 Z30.121
N1000 Y-0.015
N1005 Z30.188
N1010 Y-0.138
N1015 Z30.267
N1020 Y-0.252
N1025 Z30.36
N1030 Y-0.355
N1035 Z30.463
N1040 Y-0.448
N1045 Z30.577
N1050 Y-0.527
N1055 Z30.7
N1060 Y-0.594
N1065 Z30.831
N1070 Y-0.646
N1075 Z30.967
N1080 Y-0.684
N1085 Z31.109
N1090 Y-0.707
N1095 Z31.254
N1100 Y-0.715
N1105 Z31.4
N1110 G0 Z71
N1115 M9
N1120 M2
