(STEP4)
(T1  D=3. CR=0. - ZMIN=-8.495 - FLAT END MILL)
(T11  D=5. CR=0. - ZMIN=-18.97 - FLAT END MILL)
G21
G40
G49
G80
G90

(BORE3)
M5
T1 M6
S5000 M3
G54
G0 B0. C0.
G17
G0 X2.75 Y1.695 Z15.
Z1.
G94 G1 Z-0.7 F1000.
G18 G2 X3.05 Z-1. R0.3
G1 X3.2
G17 G3 X3.5 Y1.995 R0.3
X0. Y5.495 Z-1.087 R3.5
X-3.5 Y1.995 Z-1.175 R3.5
X0. Y-1.505 Z-1.262 R3.5
X3.5 Y1.995 Z-1.349 R3.5
X0. Y5.495 Z-1.437 R3.5
X-3.5 Y1.995 Z-1.524 R3.5
X0. Y-1.505 Z-1.611 R3.5
X3.5 Y1.995 Z-1.698 R3.5
X0. Y5.495 Z-1.786 R3.5
X-3.5 Y1.995 Z-1.873 R3.5
X0. Y-1.505 Z-1.96 R3.5
X3.5 Y1.995 Z-2.048 R3.5
X0. Y5.495 Z-2.135 R3.5
X-3.5 Y1.995 Z-2.222 R3.5
X0. Y-1.505 Z-2.31 R3.5
X3.5 Y1.995 Z-2.397 R3.5
X0. Y5.495 Z-2.484 R3.5
X-3.5 Y1.995 Z-2.571 R3.5
X0. Y-1.505 Z-2.659 R3.5
X3.5 Y1.995 Z-2.746 R3.5
X0. Y5.495 Z-2.833 R3.5
X-3.5 Y1.995 Z-2.921 R3.5
X0. Y-1.505 Z-3.008 R3.5
X3.5 Y1.995 Z-3.095 R3.5
X0. Y5.495 Z-3.183 R3.5
X-3.5 Y1.995 Z-3.27 R3.5
X0. Y-1.505 Z-3.357 R3.5
X3.5 Y1.995 Z-3.444 R3.5
X0. Y5.495 Z-3.532 R3.5
X-3.5 Y1.995 Z-3.619 R3.5
X0. Y-1.505 Z-3.706 R3.5
X3.5 Y1.995 Z-3.794 R3.5
X0. Y5.495 Z-3.881 R3.5
X-3.5 Y1.995 Z-3.968 R3.5
X0. Y-1.505 Z-4.056 R3.5
X3.5 Y1.995 Z-4.143 R3.5
X0. Y5.495 Z-4.23 R3.5
X-3.5 Y1.995 Z-4.317 R3.5
X0. Y-1.505 Z-4.405 R3.5
X3.5 Y1.995 Z-4.492 R3.5
X0. Y5.495 Z-4.579 R3.5
X-3.5 Y1.995 Z-4.667 R3.5
X0. Y-1.505 Z-4.754 R3.5
X3.5 Y1.995 Z-4.841 R3.5
X0. Y5.495 Z-4.929 R3.5
X-3.5 Y1.995 Z-5.016 R3.5
X0. Y-1.505 Z-5.103 R3.5
X3.5 Y1.995 Z-5.19 R3.5
X0. Y5.495 Z-5.278 R3.5
X-3.5 Y1.995 Z-5.365 R3.5
X0. Y-1.505 Z-5.452 R3.5
X3.5 Y1.995 Z-5.54 R3.5
X0. Y5.495 Z-5.627 R3.5
X-3.5 Y1.995 Z-5.714 R3.5
X0. Y-1.505 Z-5.802 R3.5
X3.5 Y1.995 Z-5.889 R3.5
X0. Y5.495 Z-5.976 R3.5
X-3.5 Y1.995 Z-6.064 R3.5
X0. Y-1.505 Z-6.151 R3.5
X3.5 Y1.995 Z-6.238 R3.5
X0. Y5.495 Z-6.325 R3.5
X-3.5 Y1.995 Z-6.413 R3.5
X0. Y-1.505 Z-6.5 R3.5
X3.5 Y1.995 Z-6.587 R3.5
X0. Y5.495 Z-6.675 R3.5
X-3.5 Y1.995 Z-6.762 R3.5
X0. Y-1.505 Z-6.849 R3.5
X3.5 Y1.995 Z-6.937 R3.5
X0. Y5.495 Z-7.024 R3.5
X-3.5 Y1.995 Z-7.111 R3.5
X0. Y-1.505 Z-7.198 R3.5
X3.5 Y1.995 Z-7.286 R3.5
X0. Y5.495 Z-7.373 R3.5
X-3.5 Y1.995 Z-7.46 R3.5
X0. Y-1.505 Z-7.548 R3.5
X3.5 Y1.995 Z-7.635 R3.5
X0. Y5.495 Z-7.722 R3.5
X-3.5 Y1.995 Z-7.81 R3.5
X0. Y-1.505 Z-7.897 R3.5
X3.5 Y1.995 Z-7.984 R3.5
X0. Y5.495 Z-8.071 R3.5
X-3.5 Y1.995 Z-8.159 R3.5
X0. Y-1.505 Z-8.246 R3.5
X3.5 Y1.995 Z-8.333 R3.5
X0. Y5.495 Z-8.421 R3.5
X-3.411 Y2.779 Z-8.495 R3.5
X-0.784 Y-1.416 R3.5
X3.411 Y1.211 R3.5
X0.784 Y5.406 R3.5
X-3.411 Y2.779 R3.5
X-3.373 Y2.552 R0.3
X-3.186 Y2.419 R0.3
G1 X-3.04 Y2.386
X-2.975 Y2.371 Z-8.488
X-2.913 Y2.357 Z-8.466
X-2.857 Y2.344 Z-8.43
X-2.811 Y2.333 Z-8.382
X-2.776 Y2.325 Z-8.326
X-2.755 Y2.32 Z-8.262
X-2.747 Y2.319 Z-8.195
G0 Z15.

(2D CONTOUR5)
M5
T11 M6
S5000 M3
G54
G0 B0. C0.
G0 X-8.368 Y16.117 Z15.
Z5.
G1 Z1. F333.
Z-18.47
X-8.366 Y16.11 Z-18.557 F1000.
X-8.358 Y16.089 Z-18.641
X-8.346 Y16.054 Z-18.72
X-8.33 Y16.007 Z-18.791
X-8.31 Y15.948 Z-18.853
X-8.286 Y15.881 Z-18.903
X-8.26 Y15.806 Z-18.94
X-8.232 Y15.727 Z-18.962
X-8.204 Y15.645 Z-18.97
X-8.039 Y15.173
G3 X-7.403 Y14.865 R0.5
G2 X7.97 Y14.659 R22.5
X26.779 Y-2.525 R34.5
G1 X26.788 Y-2.544
X26.998 Y-2.985
X27.015 Y-3.02
X27.22 Y-3.47
X27.243 Y-3.523
X27.637 Y-4.441
X27.665 Y-4.509
X28.031 Y-5.437
X28.051 Y-5.49
X28.221 Y-5.952
X28.235 Y-5.989
X28.395 Y-6.447
X28.408 Y-6.485
X28.558 Y-6.937
X28.57 Y-6.972
X28.71 Y-7.416
X28.721 Y-7.45
X28.851 Y-7.883
X28.861 Y-7.916
X28.981 Y-8.338
X28.99 Y-8.369
X29.1 Y-8.777
X29.108 Y-8.808
X29.21 Y-9.2
X29.217 Y-9.23
X29.309 Y-9.606
X29.316 Y-9.635
X29.399 Y-9.992
X29.405 Y-10.02
X29.48 Y-10.357
X29.485 Y-10.385
X29.553 Y-10.71
X29.558 Y-10.734
X29.62 Y-11.045
X29.624 Y-11.068
X29.68 Y-11.364
X29.684 Y-11.385
X29.734 Y-11.663
X29.737 Y-11.683
X29.781 Y-11.942
X29.785 Y-11.962
X29.823 Y-12.199
X29.826 Y-12.215
X29.859 Y-12.429
X29.861 Y-12.445
X29.889 Y-12.632
X29.89 Y-12.64
X29.913 Y-12.794
X29.914 Y-12.802
X29.932 Y-12.928
X29.934 Y-12.942
X29.948 Y-13.043
X29.949 Y-13.054
X29.96 Y-13.135
X29.962 Y-13.154
X29.97 Y-13.217
X29.972 Y-13.235
X29.983 Y-13.327
G2 X29.368 Y-15.28 R2.5
X27.5 Y-16.118 R2.5
G1 X-27.5
G2 X-29.368 Y-15.28 R2.5
X-29.983 Y-13.327 R2.5
G1 X-29.972 Y-13.235
X-29.97 Y-13.217
X-29.962 Y-13.154
X-29.96 Y-13.135
X-29.949 Y-13.054
X-29.948 Y-13.043
X-29.934 Y-12.942
X-29.932 Y-12.928
X-29.914 Y-12.802
X-29.913 Y-12.794
X-29.89 Y-12.64
X-29.889 Y-12.632
X-29.861 Y-12.445
X-29.859 Y-12.429
X-29.826 Y-12.215
X-29.823 Y-12.199
X-29.785 Y-11.962
X-29.781 Y-11.942
X-29.737 Y-11.683
X-29.734 Y-11.663
X-29.684 Y-11.385
X-29.68 Y-11.364
X-29.624 Y-11.068
X-29.62 Y-11.045
X-29.558 Y-10.734
X-29.553 Y-10.71
X-29.485 Y-10.385
X-29.48 Y-10.357
X-29.405 Y-10.02
X-29.399 Y-9.992
X-29.316 Y-9.635
X-29.309 Y-9.606
X-29.217 Y-9.23
X-29.21 Y-9.2
X-29.108 Y-8.808
X-29.1 Y-8.777
X-28.99 Y-8.369
X-28.981 Y-8.338
X-28.861 Y-7.916
X-28.851 Y-7.883
X-28.721 Y-7.45
X-28.71 Y-7.416
X-28.57 Y-6.972
X-28.558 Y-6.937
X-28.408 Y-6.485
X-28.395 Y-6.447
X-28.235 Y-5.989
X-28.221 Y-5.952
X-28.051 Y-5.49
X-28.031 Y-5.437
X-27.665 Y-4.509
X-27.637 Y-4.441
X-27.243 Y-3.523
X-27.22 Y-3.47
X-27.015 Y-3.02
X-26.998 Y-2.985
X-26.788 Y-2.544
X-26.779 Y-2.525
G2 X-7.97 Y14.659 R34.5
X-7.403 Y14.865 R22.5
G3 X-7.095 Y15.502 R0.5
G1 X-7.26 Y15.974
X-7.288 Y16.056 Z-18.962
X-7.316 Y16.135 Z-18.94
X-7.342 Y16.21 Z-18.903
X-7.365 Y16.277 Z-18.853
X-7.386 Y16.336 Z-18.791
X-7.402 Y16.383 Z-18.72
X-7.414 Y16.418 Z-18.641
X-7.422 Y16.439 Z-18.557
X-7.424 Y16.446 Z-18.47
G0 Z15.

M5
M30
