(STEP3)
(T1  D=3. CR=0. - ZMIN=-43.227 - FLAT END MILL)
G21
G40
G49
G80
G90

(BORE1)
M5
T1 M6
S5000 M3
G54
G0 B0. C0.
G17
G0 X-46.75 Y32.395 Z-19.992
Z-32.992
G94 G1 Z-34.692 F1000.
G18 G2 X-46.45 Z-34.992 R0.3
G1 X-46.3
G17 G3 X-46. Y32.695 R0.3
X-47.5 Y34.195 Z-35.044 R1.5
X-49. Y32.695 Z-35.096 R1.5
X-47.5 Y31.195 Z-35.149 R1.5
X-46. Y32.695 Z-35.201 R1.5
X-47.5 Y34.195 Z-35.254 R1.5
X-49. Y32.695 Z-35.306 R1.5
X-47.5 Y31.195 Z-35.358 R1.5
X-46. Y32.695 Z-35.411 R1.5
X-47.5 Y34.195 Z-35.463 R1.5
X-49. Y32.695 Z-35.516 R1.5
X-47.5 Y31.195 Z-35.568 R1.5
X-46. Y32.695 Z-35.62 R1.5
X-47.5 Y34.195 Z-35.673 R1.5
X-49. Y32.695 Z-35.725 R1.5
X-47.5 Y31.195 Z-35.777 R1.5
X-46. Y32.695 Z-35.83 R1.5
X-47.5 Y34.195 Z-35.882 R1.5
X-49. Y32.695 Z-35.935 R1.5
X-47.5 Y31.195 Z-35.987 R1.5
X-46. Y32.695 Z-36.039 R1.5
X-47.5 Y34.195 Z-36.092 R1.5
X-49. Y32.695 Z-36.144 R1.5
X-47.5 Y31.195 Z-36.196 R1.5
X-46. Y32.695 Z-36.249 R1.5
X-47.5 Y34.195 Z-36.301 R1.5
X-49. Y32.695 Z-36.354 R1.5
X-47.5 Y31.195 Z-36.406 R1.5
X-46. Y32.695 Z-36.458 R1.5
X-47.5 Y34.195 Z-36.511 R1.5
X-49. Y32.695 Z-36.563 R1.5
X-47.5 Y31.195 Z-36.616 R1.5
X-46. Y32.695 Z-36.668 R1.5
X-47.5 Y34.195 Z-36.72 R1.5
X-49. Y32.695 Z-36.773 R1.5
X-47.5 Y31.195 Z-36.825 R1.5
X-46. Y32.695 Z-36.877 R1.5
X-47.5 Y34.195 Z-36.93 R1.5
X-49. Y32.695 Z-36.982 R1.5
X-47.5 Y31.195 Z-37.035 R1.5
X-46. Y32.695 Z-37.087 R1.5
X-47.5 Y34.195 Z-37.139 R1.5
X-49. Y32.695 Z-37.192 R1.5
X-47.5 Y31.195 Z-37.244 R1.5
X-46. Y32.695 Z-37.296 R1.5
X-47.5 Y34.195 Z-37.349 R1.5
X-49. Y32.695 Z-37.401 R1.5
X-47.5 Y31.195 Z-37.454 R1.5
X-46. Y32.695 Z-37.506 R1.5
X-47.5 Y34.195 Z-37.558 R1.5
X-49. Y32.695 Z-37.611 R1.5
X-47.5 Y31.195 Z-37.663 R1.5
X-46. Y32.695 Z-37.716 R1.5
X-47.5 Y34.195 Z-37.768 R1.5
X-49. Y32.695 Z-37.82 R1.5
X-47.5 Y31.195 Z-37.873 R1.5
X-46. Y32.695 Z-37.925 R1.5
X-47.5 Y34.195 Z-37.977 R1.5
X-49. Y32.695 Z-38.03 R1.5
X-47.5 Y31.195 Z-38.082 R1.5
X-46. Y32.695 Z-38.135 R1.5
X-47.5 Y34.195 Z-38.187 R1.5
X-49. Y32.695 Z-38.239 R1.5
X-47.5 Y31.195 Z-38.292 R1.5
X-46. Y32.695 Z-38.344 R1.5
X-47.5 Y34.195 Z-38.397 R1.5
X-49. Y32.695 Z-38.449 R1.5
X-47.5 Y31.195 Z-38.501 R1.5
X-46. Y32.695 Z-38.554 R1.5
X-47.5 Y34.195 Z-38.606 R1.5
X-49. Y32.695 Z-38.658 R1.5
X-47.5 Y31.195 Z-38.711 R1.5
X-46. Y32.695 Z-38.763 R1.5
X-47.5 Y34.195 Z-38.816 R1.5
X-49. Y32.695 Z-38.868 R1.5
X-47.5 Y31.195 Z-38.92 R1.5
X-46. Y32.695 Z-38.973 R1.5
X-47.5 Y34.195 Z-39.025 R1.5
X-49. Y32.695 Z-39.077 R1.5
X-47.5 Y31.195 Z-39.13 R1.5
X-46. Y32.695 Z-39.182 R1.5
X-47.5 Y34.195 Z-39.235 R1.5
X-49. Y32.695 Z-39.287 R1.5
X-47.5 Y31.195 Z-39.339 R1.5
X-46. Y32.695 Z-39.392 R1.5
X-47.5 Y34.195 Z-39.444 R1.5
X-49. Y32.695 Z-39.497 R1.5
X-47.5 Y31.195 Z-39.549 R1.5
X-46. Y32.695 Z-39.601 R1.5
X-47.5 Y34.195 Z-39.654 R1.5
X-49. Y32.695 Z-39.706 R1.5
X-47.5 Y31.195 Z-39.758 R1.5
X-46. Y32.695 Z-39.811 R1.5
X-47.5 Y34.195 Z-39.863 R1.5
X-49. Y32.695 Z-39.916 R1.5
X-47.5 Y31.195 Z-39.968 R1.5
X-46. Y32.695 Z-40.02 R1.5
X-47.5 Y34.195 Z-40.073 R1.5
X-49. Y32.695 Z-40.125 R1.5
X-47.5 Y31.195 Z-40.177 R1.5
X-46. Y32.695 Z-40.23 R1.5
X-47.5 Y34.195 Z-40.282 R1.5
X-49. Y32.695 Z-40.335 R1.5
X-47.5 Y31.195 Z-40.387 R1.5
X-46. Y32.695 Z-40.439 R1.5
X-47.5 Y34.195 Z-40.492 R1.5
X-49. Y32.695 Z-40.544 R1.5
X-47.5 Y31.195 Z-40.597 R1.5
X-46. Y32.695 Z-40.649 R1.5
X-47.5 Y34.195 Z-40.701 R1.5
X-49. Y32.695 Z-40.754 R1.5
X-47.5 Y31.195 Z-40.806 R1.5
X-46. Y32.695 Z-40.858 R1.5
X-47.5 Y34.195 Z-40.911 R1.5
X-49. Y32.695 Z-40.963 R1.5
X-47.5 Y31.195 Z-41.016 R1.5
X-46. Y32.695 Z-41.068 R1.5
X-47.5 Y34.195 Z-41.12 R1.5
X-49. Y32.695 Z-41.173 R1.5
X-47.5 Y31.195 Z-41.225 R1.5
X-46. Y32.695 Z-41.277 R1.5
X-47.5 Y34.195 Z-41.33 R1.5
X-49. Y32.695 Z-41.382 R1.5
X-47.5 Y31.195 Z-41.435 R1.5
X-46. Y32.695 Z-41.487 R1.5
X-47.5 Y34.195 Z-41.539 R1.5
X-49. Y32.695 Z-41.592 R1.5
X-47.5 Y31.195 Z-41.644 R1.5
X-46. Y32.695 Z-41.697 R1.5
X-47.5 Y34.195 Z-41.749 R1.5
X-49. Y32.695 Z-41.801 R1.5
X-47.5 Y31.195 Z-41.854 R1.5
X-46. Y32.695 Z-41.906 R1.5
X-47.5 Y34.195 Z-41.958 R1.5
X-49. Y32.695 Z-42.011 R1.5
X-47.5 Y31.195 Z-42.063 R1.5
X-46. Y32.695 Z-42.116 R1.5
X-47.5 Y34.195 Z-42.168 R1.5
X-49. Y32.695 Z-42.22 R1.5
X-47.5 Y31.195 Z-42.273 R1.5
X-46. Y32.695 Z-42.325 R1.5
X-47.5 Y34.195 Z-42.377 R1.5
X-49. Y32.695 Z-42.43 R1.5
X-47.5 Y31.195 Z-42.482 R1.5
X-46. Y32.695 Z-42.535 R1.5
X-47.5 Y34.195 Z-42.587 R1.5
X-49. Y32.695 Z-42.639 R1.5
X-47.5 Y31.195 Z-42.692 R1.5
X-46. Y32.695 Z-42.744 R1.5
X-47.5 Y34.195 Z-42.797 R1.5
X-49. Y32.695 Z-42.849 R1.5
X-47.5 Y31.195 Z-42.901 R1.5
X-46. Y32.695 Z-42.954 R1.5
X-47.5 Y34.195 Z-43.006 R1.5
X-49. Y32.695 Z-43.058 R1.5
X-47.5 Y31.195 Z-43.111 R1.5
X-46. Y32.695 Z-43.163 R1.5
X-47.5 Y34.195 Z-43.216 R1.5
X-48.014 Y34.105 Z-43.227 R1.5
X-48.909 Y32.182 R1.5
X-46.986 Y31.286 R1.5
X-46.091 Y33.209 R1.5
X-48.014 Y34.105 R1.5
X-48.193 Y33.72 R0.3
G1 X-48.141 Y33.579
X-48.118 Y33.516 Z-43.22
X-48.097 Y33.457 Z-43.198
X-48.077 Y33.403 Z-43.162
X-48.061 Y33.359 Z-43.114
X-48.049 Y33.325 Z-43.057
X-48.041 Y33.304 Z-42.994
X-48.039 Y33.297 Z-42.927
G0 Z-29.992
X-6.75 Y32.395
Z-32.992
G1 Z-34.692 F1000.
G18 G2 X-6.45 Z-34.992 R0.3
G1 X-6.3
G17 G3 X-6. Y32.695 R0.3
X-7.5 Y34.195 Z-35.044 R1.5
X-9. Y32.695 Z-35.096 R1.5
X-7.5 Y31.195 Z-35.149 R1.5
X-6. Y32.695 Z-35.201 R1.5
X-7.5 Y34.195 Z-35.254 R1.5
X-9. Y32.695 Z-35.306 R1.5
X-7.5 Y31.195 Z-35.358 R1.5
X-6. Y32.695 Z-35.411 R1.5
X-7.5 Y34.195 Z-35.463 R1.5
X-9. Y32.695 Z-35.516 R1.5
X-7.5 Y31.195 Z-35.568 R1.5
X-6. Y32.695 Z-35.62 R1.5
X-7.5 Y34.195 Z-35.673 R1.5
X-9. Y32.695 Z-35.725 R1.5
X-7.5 Y31.195 Z-35.777 R1.5
X-6. Y32.695 Z-35.83 R1.5
X-7.5 Y34.195 Z-35.882 R1.5
X-9. Y32.695 Z-35.935 R1.5
X-7.5 Y31.195 Z-35.987 R1.5
X-6. Y32.695 Z-36.039 R1.5
X-7.5 Y34.195 Z-36.092 R1.5
X-9. Y32.695 Z-36.144 R1.5
X-7.5 Y31.195 Z-36.196 R1.5
X-6. Y32.695 Z-36.249 R1.5
X-7.5 Y34.195 Z-36.301 R1.5
X-9. Y32.695 Z-36.354 R1.5
X-7.5 Y31.195 Z-36.406 R1.5
X-6. Y32.695 Z-36.458 R1.5
X-7.5 Y34.195 Z-36.511 R1.5
X-9. Y32.695 Z-36.563 R1.5
X-7.5 Y31.195 Z-36.616 R1.5
X-6. Y32.695 Z-36.668 R1.5
X-7.5 Y34.195 Z-36.72 R1.5
X-9. Y32.695 Z-36.773 R1.5
X-7.5 Y31.195 Z-36.825 R1.5
X-6. Y32.695 Z-36.877 R1.5
X-7.5 Y34.195 Z-36.93 R1.5
X-9. Y32.695 Z-36.982 R1.5
X-7.5 Y31.195 Z-37.035 R1.5
X-6. Y32.695 Z-37.087 R1.5
X-7.5 Y34.195 Z-37.139 R1.5
X-9. Y32.695 Z-37.192 R1.5
X-7.5 Y31.195 Z-37.244 R1.5
X-6. Y32.695 Z-37.296 R1.5
X-7.5 Y34.195 Z-37.349 R1.5
X-9. Y32.695 Z-37.401 R1.5
X-7.5 Y31.195 Z-37.454 R1.5
X-6. Y32.695 Z-37.506 R1.5
X-7.5 Y34.195 Z-37.558 R1.5
X-9. Y32.695 Z-37.611 R1.5
X-7.5 Y31.195 Z-37.663 R1.5
X-6. Y32.695 Z-37.716 R1.5
X-7.5 Y34.195 Z-37.768 R1.5
X-9. Y32.695 Z-37.82 R1.5
X-7.5 Y31.195 Z-37.873 R1.5
X-6. Y32.695 Z-37.925 R1.5
X-7.5 Y34.195 Z-37.977 R1.5
X-9. Y32.695 Z-38.03 R1.5
X-7.5 Y31.195 Z-38.082 R1.5
X-6. Y32.695 Z-38.135 R1.5
X-7.5 Y34.195 Z-38.187 R1.5
X-9. Y32.695 Z-38.239 R1.5
X-7.5 Y31.195 Z-38.292 R1.5
X-6. Y32.695 Z-38.344 R1.5
X-7.5 Y34.195 Z-38.397 R1.5
X-9. Y32.695 Z-38.449 R1.5
X-7.5 Y31.195 Z-38.501 R1.5
X-6. Y32.695 Z-38.554 R1.5
X-7.5 Y34.195 Z-38.606 R1.5
X-9. Y32.695 Z-38.658 R1.5
X-7.5 Y31.195 Z-38.711 R1.5
X-6. Y32.695 Z-38.763 R1.5
X-7.5 Y34.195 Z-38.816 R1.5
X-9. Y32.695 Z-38.868 R1.5
X-7.5 Y31.195 Z-38.92 R1.5
X-6. Y32.695 Z-38.973 R1.5
X-7.5 Y34.195 Z-39.025 R1.5
X-9. Y32.695 Z-39.077 R1.5
X-7.5 Y31.195 Z-39.13 R1.5
X-6. Y32.695 Z-39.182 R1.5
X-7.5 Y34.195 Z-39.235 R1.5
X-9. Y32.695 Z-39.287 R1.5
X-7.5 Y31.195 Z-39.339 R1.5
X-6. Y32.695 Z-39.392 R1.5
X-7.5 Y34.195 Z-39.444 R1.5
X-9. Y32.695 Z-39.497 R1.5
X-7.5 Y31.195 Z-39.549 R1.5
X-6. Y32.695 Z-39.601 R1.5
X-7.5 Y34.195 Z-39.654 R1.5
X-9. Y32.695 Z-39.706 R1.5
X-7.5 Y31.195 Z-39.758 R1.5
X-6. Y32.695 Z-39.811 R1.5
X-7.5 Y34.195 Z-39.863 R1.5
X-9. Y32.695 Z-39.916 R1.5
X-7.5 Y31.195 Z-39.968 R1.5
X-6. Y32.695 Z-40.02 R1.5
X-7.5 Y34.195 Z-40.073 R1.5
X-9. Y32.695 Z-40.125 R1.5
X-7.5 Y31.195 Z-40.177 R1.5
X-6. Y32.695 Z-40.23 R1.5
X-7.5 Y34.195 Z-40.282 R1.5
X-9. Y32.695 Z-40.335 R1.5
X-7.5 Y31.195 Z-40.387 R1.5
X-6. Y32.695 Z-40.439 R1.5
X-7.5 Y34.195 Z-40.492 R1.5
X-9. Y32.695 Z-40.544 R1.5
X-7.5 Y31.195 Z-40.597 R1.5
X-6. Y32.695 Z-40.649 R1.5
X-7.5 Y34.195 Z-40.701 R1.5
X-9. Y32.695 Z-40.754 R1.5
X-7.5 Y31.195 Z-40.806 R1.5
X-6. Y32.695 Z-40.858 R1.5
X-7.5 Y34.195 Z-40.911 R1.5
X-9. Y32.695 Z-40.963 R1.5
X-7.5 Y31.195 Z-41.016 R1.5
X-6. Y32.695 Z-41.068 R1.5
X-7.5 Y34.195 Z-41.12 R1.5
X-9. Y32.695 Z-41.173 R1.5
X-7.5 Y31.195 Z-41.225 R1.5
X-6. Y32.695 Z-41.277 R1.5
X-7.5 Y34.195 Z-41.33 R1.5
X-9. Y32.695 Z-41.382 R1.5
X-7.5 Y31.195 Z-41.435 R1.5
X-6. Y32.695 Z-41.487 R1.5
X-7.5 Y34.195 Z-41.539 R1.5
X-9. Y32.695 Z-41.592 R1.5
X-7.5 Y31.195 Z-41.644 R1.5
X-6. Y32.695 Z-41.697 R1.5
X-7.5 Y34.195 Z-41.749 R1.5
X-9. Y32.695 Z-41.801 R1.5
X-7.5 Y31.195 Z-41.854 R1.5
X-6. Y32.695 Z-41.906 R1.5
X-7.5 Y34.195 Z-41.958 R1.5
X-9. Y32.695 Z-42.011 R1.5
X-7.5 Y31.195 Z-42.063 R1.5
X-6. Y32.695 Z-42.116 R1.5
X-7.5 Y34.195 Z-42.168 R1.5
X-9. Y32.695 Z-42.22 R1.5
X-7.5 Y31.195 Z-42.273 R1.5
X-6. Y32.695 Z-42.325 R1.5
X-7.5 Y34.195 Z-42.377 R1.5
X-9. Y32.695 Z-42.43 R1.5
X-7.5 Y31.195 Z-42.482 R1.5
X-6. Y32.695 Z-42.535 R1.5
X-7.5 Y34.195 Z-42.587 R1.5
X-9. Y32.695 Z-42.639 R1.5
X-7.5 Y31.195 Z-42.692 R1.5
X-6. Y32.695 Z-42.744 R1.5
X-7.5 Y34.195 Z-42.797 R1.5
X-9. Y32.695 Z-42.849 R1.5
X-7.5 Y31.195 Z-42.901 R1.5
X-6. Y32.695 Z-42.954 R1.5
X-7.5 Y34.195 Z-43.006 R1.5
X-9. Y32.695 Z-43.058 R1.5
X-7.5 Y31.195 Z-43.111 R1.5
X-6. Y32.695 Z-43.163 R1.5
X-7.5 Y34.195 Z-43.216 R1.5
X-8.014 Y34.105 Z-43.227 R1.5
X-8.909 Y32.182 R1.5
X-6.986 Y31.286 R1.5
X-6.091 Y33.209 R1.5
X-8.014 Y34.105 R1.5
X-8.193 Y33.72 R0.3
G1 X-8.141 Y33.579
X-8.118 Y33.516 Z-43.22
X-8.097 Y33.457 Z-43.198
X-8.077 Y33.403 Z-43.162
X-8.061 Y33.359 Z-43.114
X-8.049 Y33.325 Z-43.057
X-8.041 Y33.304 Z-42.994
X-8.039 Y33.297 Z-42.927
G0 Z-19.992

(2D POCKET1)
G0 X-24.415 Y32.226
Z-19.992
Z-29.992
G1 Z-32.192 F333.
X-24.419 Y32.188 Z-32.339
X-24.425 Y32.083 Z-32.448
X-24.42 Y31.937 Z-32.492
G3 X-22.878 Y30.639 Z-32.57 R1.425
X-21.58 Y32.181 Z-32.648 R1.425
X-23.122 Y33.479 Z-32.726 R1.425
X-24.42 Y31.937 Z-32.804 R1.425
X-22.878 Y30.639 Z-32.883 R1.425
X-21.58 Y32.181 Z-32.961 R1.425
X-23.122 Y33.479 Z-33.039 R1.425
X-24.42 Y31.937 Z-33.117 R1.425
X-22.878 Y30.639 Z-33.195 R1.425
X-21.58 Y32.181 Z-33.273 R1.425
X-23.122 Y33.479 Z-33.352 R1.425
X-24.42 Y31.937 Z-33.43 R1.425
X-22.878 Y30.639 Z-33.508 R1.425
X-21.58 Y32.181 Z-33.586 R1.425
X-23.122 Y33.479 Z-33.664 R1.425
X-24.42 Y31.937 Z-33.742 R1.425
X-22.878 Y30.639 Z-33.821 R1.425
X-21.58 Y32.181 Z-33.899 R1.425
X-23.122 Y33.479 Z-33.977 R1.425
X-24.42 Y31.937 Z-34.055 R1.425
X-22.878 Y30.639 Z-34.133 R1.425
X-21.58 Y32.181 Z-34.211 R1.425
X-23.122 Y33.479 Z-34.29 R1.425
X-24.42 Y31.937 Z-34.368 R1.425
X-22.878 Y30.639 Z-34.446 R1.425
X-21.58 Y32.181 Z-34.524 R1.425
X-23.122 Y33.479 Z-34.602 R1.425
X-24.42 Y31.937 Z-34.68 R1.425
X-22.878 Y30.639 Z-34.759 R1.425
X-21.58 Y32.181 Z-34.837 R1.425
X-23.122 Y33.479 Z-34.915 R1.425
X-24.42 Y31.937 Z-34.993 R1.425
X-22.878 Y30.639 Z-35.071 R1.425
X-21.58 Y32.181 Z-35.149 R1.425
X-23.122 Y33.479 Z-35.228 R1.425
X-24.42 Y31.937 Z-35.306 R1.425
X-22.878 Y30.639 Z-35.384 R1.425
X-21.58 Y32.181 Z-35.462 R1.425
X-23.122 Y33.479 Z-35.54 R1.425
X-24.42 Y31.937 Z-35.618 R1.425
X-22.878 Y30.639 Z-35.697 R1.425
X-21.58 Y32.181 Z-35.775 R1.425
X-23.122 Y33.479 Z-35.853 R1.425
X-24.42 Y31.937 Z-35.931 R1.425
X-22.878 Y30.639 Z-36.009 R1.425
X-21.58 Y32.181 Z-36.087 R1.425
X-23.122 Y33.479 Z-36.166 R1.425
X-24.42 Y31.937 Z-36.244 R1.425
X-22.878 Y30.639 Z-36.322 R1.425
X-21.58 Y32.181 Z-36.4 R1.425
X-23.122 Y33.479 Z-36.478 R1.425
X-24.42 Y31.937 Z-36.556 R1.425
X-22.878 Y30.639 Z-36.635 R1.425
X-21.58 Y32.181 Z-36.713 R1.425
X-23.122 Y33.479 Z-36.791 R1.425
X-24.42 Y31.937 Z-36.869 R1.425
X-22.878 Y30.639 Z-36.947 R1.425
X-21.58 Y32.181 Z-37.025 R1.425
X-23.122 Y33.479 Z-37.104 R1.425
X-24.42 Y31.937 Z-37.182 R1.425
X-22.878 Y30.639 Z-37.26 R1.425
X-21.58 Y32.181 Z-37.338 R1.425
X-23.122 Y33.479 Z-37.416 R1.425
X-24.42 Y31.937 Z-37.494 R1.425
X-22.878 Y30.639 Z-37.572 R1.425
X-21.58 Y32.181 Z-37.651 R1.425
X-23.122 Y33.479 Z-37.729 R1.425
X-24.42 Y31.937 Z-37.807 R1.425
X-22.878 Y30.639 Z-37.885 R1.425
X-21.58 Y32.181 Z-37.963 R1.425
X-23.122 Y33.479 Z-38.041 R1.425
X-24.42 Y31.937 Z-38.12 R1.425
X-22.878 Y30.639 Z-38.198 R1.425
X-21.58 Y32.181 Z-38.276 R1.425
X-23.122 Y33.479 Z-38.354 R1.425
X-24.42 Y31.937 Z-38.432 R1.425
X-22.878 Y30.639 Z-38.51 R1.425
X-21.58 Y32.181 Z-38.589 R1.425
X-23.122 Y33.479 Z-38.667 R1.425
X-24.42 Y31.937 Z-38.745 R1.425
X-22.878 Y30.639 Z-38.823 R1.425
X-21.58 Y32.181 Z-38.901 R1.425
X-23.122 Y33.479 Z-38.979 R1.425
X-24.42 Y31.937 Z-39.058 R1.425
X-22.878 Y30.639 Z-39.136 R1.425
X-21.58 Y32.181 Z-39.214 R1.425
X-23.122 Y33.479 Z-39.292 R1.425
X-24.42 Y31.937 Z-39.37 R1.425
X-22.878 Y30.639 Z-39.448 R1.425
X-21.58 Y32.181 Z-39.527 R1.425
X-23.122 Y33.479 Z-39.605 R1.425
X-24.42 Y31.937 Z-39.683 R1.425
X-22.878 Y30.639 Z-39.761 R1.425
X-21.58 Y32.181 Z-39.839 R1.425
X-23.122 Y33.479 Z-39.917 R1.425
X-24.42 Y31.937 Z-39.996 R1.425
X-22.878 Y30.639 Z-40.074 R1.425
X-21.58 Y32.181 Z-40.152 R1.425
X-23.122 Y33.479 Z-40.23 R1.425
X-24.42 Y31.937 Z-40.308 R1.425
X-22.878 Y30.639 Z-40.386 R1.425
X-21.58 Y32.181 Z-40.465 R1.425
X-23.122 Y33.479 Z-40.543 R1.425
X-24.42 Y31.937 Z-40.621 R1.425
X-22.878 Y30.639 Z-40.699 R1.425
X-21.58 Y32.181 Z-40.777 R1.425
X-23.122 Y33.479 Z-40.855 R1.425
X-24.42 Y31.937 Z-40.934 R1.425
X-22.878 Y30.639 Z-41.012 R1.425
X-21.58 Y32.181 Z-41.09 R1.425
X-23.122 Y33.479 Z-41.168 R1.425
X-24.42 Y31.937 Z-41.246 R1.425
X-22.878 Y30.639 Z-41.324 R1.425
X-21.58 Y32.181 Z-41.403 R1.425
X-23.122 Y33.479 Z-41.481 R1.425
X-24.42 Y31.937 Z-41.559 R1.425
X-22.878 Y30.639 Z-41.637 R1.425
X-21.58 Y32.181 Z-41.715 R1.425
X-23.122 Y33.479 Z-41.793 R1.425
X-24.42 Y31.937 Z-41.872 R1.425
X-22.878 Y30.639 Z-41.95 R1.425
X-21.58 Y32.181 Z-42.028 R1.425
X-23.122 Y33.479 Z-42.106 R1.425
X-24.42 Y31.937 Z-42.184 R1.425
X-22.878 Y30.639 Z-42.262 R1.425
X-21.58 Y32.181 Z-42.341 R1.425
X-23.122 Y33.479 Z-42.419 R1.425
X-24.42 Y31.937 Z-42.497 R1.425
X-22.878 Y30.639 Z-42.575 R1.425
X-21.58 Y32.181 Z-42.653 R1.425
X-23. Y33.484 Z-42.727 R1.425
G1 X-32.276 F1000.
G3 X-32.595 Y33.165 R0.319
G1 Y32.613
G3 X-32.276 Y32.294 R0.319
G1 X-22.724
G3 X-22.405 Y32.613 R0.319
G1 Y33.165
G3 X-22.724 Y33.484 R0.319
G1 X-23.
G2 X-24.275 Y34.334 R1.381
G3 X-25.55 Y35.184 R1.381
G1 X-33.976
G3 X-34.295 Y34.865 R0.319
G1 Y30.913
G3 X-33.976 Y30.594 R0.319
G1 X-21.024
G3 X-20.705 Y30.913 R0.319
G1 Y34.865
G3 X-21.024 Y35.184 R0.319
G1 X-25.55
G2 X-26.829 Y36.037 R1.385
G3 X-28.108 Y36.889 R1.385
G1 X-35.
G3 X-36. Y35.889 R1.
G1 Y29.889
G3 X-35. Y28.889 R1.
G1 X-20.
G3 X-19. Y29.889 R1.
G1 Y35.889
G3 X-20. Y36.889 R1.
G1 X-28.108
X-28.165 Y36.884 Z-42.716
X-28.22 Y36.867 Z-42.704
X-28.263 Y36.846 Z-42.672
X-28.302 Y36.817 Z-42.639
X-28.347 Y36.77 Z-42.542
X-28.36 Y36.751 Z-42.427
G0 Z-19.992

M5
M30
